X: 98
T: Vexilla regis
N: Derived from Mar2091-Vexilla_regis.krn
C: Johannes Martini
%%abc-version 2.0
%%abcx-abcm2ps-target-version 5.9.1 (29 Sep 2008)
%%abc-creator hum2abc beta
%%abcx-conversion-date 2019/02/17 07:19:42
%%abc-edited-by Jesse Rodin
%%abc-edited-by Chris Gage 08-19-2014
%%abcx-initial-encoding-date 2014/10/05/
%%humdrum-veritas 702409588
%%humdrum-veritas-data 326997482
%%linebreak <none>
%%barnumbers 0
L: 1/4
M: 2/1
Q: 1/2=120
V: 1 clef=treble
V: 2 clef=treble-8
V: 3 clef=bass
K: C
[V:1] F8 | 
[V:2] c4d4 | 
[V:3] F,8 | 
[V:1] G6A2 | 
[V:2] e8 | 
[V:3] E,6F,2 | 
[V:1] _B8 | 
[V:2] d6g2- | 
[V:3] G,8 | 
[V:1] _B8 | 
[V:2] g2f2d2e2 | 
[V:3] G,8 | 
[V:1] A4G4 | 
[V:2] f4d4 | 
[V:3] F,4G,4 | 
[V:1] F4G4 | 
[V:2] c4d4 | 
[V:3] A,4G,4- | 
[V:1] G4A4- | 
[V:2] B4A2d2- | 
[V:3] G,2F,E,F,2D,2- | 
[V:1] A2G2F4 | 
[V:2] d2c2d4 | 
[V:3] D,2E,2D,2D2- | 
[V:1] E8 | 
[V:2] G4A4 | 
[V:3] D2^CB,C4 | 
[V:1] D8 | 
[V:2] D8 | 
[V:3] D3CA,4- | 
[V:1] z8 | 
[V:2] d2e2d2g2- | 
[V:3] A,4G,3A, | 
[V:1] G4G4 | 
[V:2] g2e2d4 | 
[V:3] _B,8 | 
[V:1] A4F3E | 
[V:2] c4z2F2 | 
[V:3] A,4A,2A,2 | 
[V:1] D4z2F2 | 
[V:2] G3FA4 | 
[V:3] _B,3A,F,4 | 
[V:1] E2F4ED | 
[V:2] B2c4BA | 
[V:3] G,2A,4G,F, | 
[V:1] C2D4^C2 | 
[V:2] G2A4G2 | 
[V:3] E,2D,2E,4 | 
[V:1] D8 | 
[V:2] A2F4D2 | 
[V:3] D,4z4 | 
[V:1] z8 | 
[V:2] F3GA2d2- | 
[V:3] D,4D,4 | 
[V:1] D4D4 | 
[V:2] d2cBA4 | 
[V:3] F,8 | 
[V:1] F4D4 | 
[V:2] A2F2G4 | 
[V:3] D,2D4CB, | 
[V:1] C4F4 | 
[V:2] z2A3Bc2 | 
[V:3] A,4z2A,2 | 
[V:1] G2A2_B4 | 
[V:2] d4G4 | 
[V:3] B,3CD4 | 
[V:1] A2G2F2G2- | 
[V:2] A2B2c2d2- | 
[V:3] C2B,2A,2G,2 | 
[V:1] G2F4E2 | 
[V:2] d2c4B2 | 
[V:3] _B,2A,2G,4 | 
[V:1] F4z4 | 
[V:2] c6d2 | 
[V:3] F,4A,4 | 
[V:1] z8 | 
[V:2] e3dcBA2- | 
[V:3] G,4A,4 | 
[V:1] A4G4 | 
[V:2] A2d4^c2 | 
[V:3] F,2D,2E,4 | 
[V:1] A4F2D2 | 
[V:2] d4D4 | 
[V:3] D,4D2D2- | 
[V:1] E4D3E | 
[V:2] A4D4 | 
[V:3] D2^C2D4- | 
[V:1] F2G4FE | 
[V:2] z2G3AB2 | 
[V:3] D4G,4 | 
[V:1] F2EDC2E2- | 
[V:2] A2B2c4 | 
[V:3] F,2G,2A,4 | 
[V:1] E2D4^C2 | 
[V:2] B2A4G2 | 
[V:3] G,2F,2E,4 | 
[V:1] D8 ||  
[V:2] A8 ||  
[V:3] D,8 ||  
[V:1] F8 | 
[V:2] c4d4 | 
[V:3] F,8 | 
[V:1] G4A4 | 
[V:2] e4c2d2- | 
[V:3] E,4F,4 | 
[V:1] _B4A2F2- | 
[V:2] d2e4c2 | 
[V:3] G,4A,4 | 
[V:1] F2G2F2A2- | 
[V:2] d4c2f2- | 
[V:3] _B,4A,2F,2- | 
[V:1] AGF4E2 | 
[V:2] fec4B2 | 
[V:3] F,G,A,2G,4 | 
[V:1] F8 | 
[V:2] c4d4 | 
[V:3] F,4z4 | 
[V:1] z8 | 
[V:2] B2c2d2e2- | 
[V:3] G,4F,2G,2- | 
[V:1] G4G4 | 
[V:2] ed^cB^c4 | 
[V:3] G,F,E,D,E,4 | 
[V:1] F4F2E2- | 
[V:2] d2A3Bc2 | 
[V:3] D,6C,2 | 
[V:1] EDD4^C2 | 
[V:2] B2A4G2 | 
[V:3] D,2F,2E,4 | 
[V:1] D8 | 
[V:2] A4B3c | 
[V:3] D,4G,4 | 
[V:1] z8 | 
[V:2] d2e4dc | 
[V:3] G,4A,4 | 
[V:1] G4G4 | 
[V:2] B2d4^c2 | 
[V:3] G,2F,2E,4 | 
[V:1] A4G2F2 | 
[V:2] d2f2e2d2- | 
[V:3] D,4z4 | 
[V:1] E4D4 | 
[V:2] d2^c2d4 | 
[V:3] A,4_B,4 | 
[V:1] E2F4E2- | 
[V:2] c4A2B2- | 
[V:3] A,4F,2G,2- | 
[V:1] EDD4^C2 | 
[V:2] BAA4G2 | 
[V:3] G,2F,2E,4 | 
[V:1] D8 | 
[V:2] A4B4 | 
[V:3] D,4z4 | 
[V:1] z4D4 | 
[V:2] A2d3cA2- | 
[V:3] D,4F,4- | 
[V:1] F8 | 
[V:2] AGc4B2 | 
[V:3] F,2E,2D,4 | 
[V:1] E4D4 | 
[V:2] c4A4- | 
[V:3] C,4F,4 | 
[V:1] C4F4 | 
[V:2] A2G2F4 | 
[V:3] A,6G,2 | 
[V:1] A6G2 | 
[V:2] c6B2 | 
[V:3] F,6G,2 | 
[V:1] F4E2G2- | 
[V:2] c2d2e4 | 
[V:3] A,2B,2C4 | 
[V:1] GFF4E2 | 
[V:2] d2c4B2 | 
[V:3] B,2A,2G,4 | 
[V:1] F8 | 
[V:2] c6e2- | 
[V:3] F,4A,4 | 
[V:1] z4A4- | 
[V:2] e2d2c2A2- | 
[V:3] G,4A,2F,2- | 
[V:1] A4G4 | 
[V:2] A2d4^c2 | 
[V:3] F,2E,D,E,4 | 
[V:1] A4A2F2- | 
[V:2] d4A4- | 
[V:3] D,4D,4- | 
[V:1] F2EDE4 | 
[V:2] A2B2c4 | 
[V:3] D,4C,4 | 
[V:1] F4D4 | 
[V:2] F2A4B2 | 
[V:3] D,4F,2G,2 | 
[V:1] C2F2G2A2- | 
[V:2] c2BAG2F2 | 
[V:3] A,4B,2C2 | 
[V:1] AGFEF2E2- | 
[V:2] c4d2B2 | 
[V:3] A,4D,2G,2 | 
[V:1] EDD4^C2 | 
[V:2] c2A4G2 | 
[V:3] A,2F,2E,4 | 
[V:1] D8 |]  
[V:2] A8 |]  
[V:3] D,8 |]  



